**harm	**harte	**timestamp	**phrase	**leadinstrument	**kern
*M4/4	*M4/4	*	*	*	*
*E:	*E:	*	*	*	*E:
1r;	N	0	.	r	1r;
=1	=1	=1	=1	=1	=1
*>A_intro	*>A_intro	*>A_intro	*>A_intro	*>A_intro	*>A_intro
1I	E:maj	2.694	newline	piano	1E 1g# 1b
=2	=2	=2	=2	=2	=2
1vi	C#:min	4.532	.	piano	1C# 1e 1g#
=3	=3	=3	=3	=3	=3
1IV	A:maj	6.371	.	piano	1A 1cc# 1ee
=4	=4	=4	=4	=4	=4
1V	B:maj	8.21	.	piano	1B 1dd# 1ff#
=5	=5	=5	=5	=5	=5
*>B_chorus	*>B_chorus	*>B_chorus	*>B_chorus	*>B_chorus	*>B_chorus
1I	E:maj	10.049	newline	voice	1E 1g# 1b
=6	=6	=6	=6	=6	=6
1vi	C#:min	11.851	.	voice	1C# 1e 1g#
=7	=7	=7	=7	=7	=7
1IV	A:maj	13.654	.	voice	1A 1cc# 1ee
=8	=8	=8	=8	=8	=8
1V	B:maj	15.456	.	voice	1B 1dd# 1ff#
=9	=9	=9	=9	=9	=9
1I	E:maj	17.259	newline	voice	1E 1g# 1b
=10	=10	=10	=10	=10	=10
1vi	C#:min	19.06	.	voice	1C# 1e 1g#
=11	=11	=11	=11	=11	=11
1IV	A:maj	20.862	.	voice	1A 1cc# 1ee
=12	=12	=12	=12	=12	=12
1V	B:maj	22.663	.	voice	1B 1dd# 1ff#
=13	=13	=13	=13	=13	=13
1I	E:maj	24.465	newline	drums	1E 1g# 1b
=14	=14	=14	=14	=14	=14
1r	N	26.282	.	drums	1r
=15	=15	=15	=15	=15	=15
*>C_verse	*>C_verse	*>C_verse	*>C_verse	*>C_verse	*>C_verse
1I	E:maj	28.099	newline	voice	1E 1g# 1b
=16	=16	=16	=16	=16	=16
1vi	C#:min	29.898	.	voice	1C# 1e 1g#
=17	=17	=17	=17	=17	=17
1IV	A:maj	31.696	.	voice	1A 1cc# 1ee
=18	=18	=18	=18	=18	=18
1V	B:maj	33.494	.	voice	1B 1dd# 1ff#
=19	=19	=19	=19	=19	=19
1I	E:maj	35.293	newline	voice	1E 1g# 1b
=20	=20	=20	=20	=20	=20
1vi	C#:min	37.11	.	voice	1C# 1e 1g#
=21	=21	=21	=21	=21	=21
1IV	A:maj	38.926	.	voice	1A 1cc# 1ee
=22	=22	=22	=22	=22	=22
1V	B:maj	40.743	.	voice	1B 1dd# 1ff#
=23	=23	=23	=23	=23	=23
1I	E:maj	42.56	newline	voice	1E 1g# 1b
=24	=24	=24	=24	=24	=24
1vi	C#:min	44.37	.	voice	1C# 1e 1g#
=25	=25	=25	=25	=25	=25
1IV	A:maj	46.181	.	voice	1A 1cc# 1ee
=26	=26	=26	=26	=26	=26
1V	B:maj	47.991	.	voice	1B 1dd# 1ff#
=27	=27	=27	=27	=27	=27
1I	E:maj	49.802	newline	voice	1E 1g# 1b
=28	=28	=28	=28	=28	=28
1vi	C#:min	51.624	.	voice	1C# 1e 1g#
=29	=29	=29	=29	=29	=29
1IV	A:maj	53.446	.	voice	1A 1cc# 1ee
=30	=30	=30	=30	=30	=30
1V	B:maj	55.268	.	voice	1B 1dd# 1ff#
=31	=31	=31	=31	=31	=31
1I	E:maj	57.09	newline	drums	1E 1g# 1b
=32	=32	=32	=32	=32	=32
1r	N	58.907	.	drums	1r
=33	=33	=33	=33	=33	=33
*>B_chorus	*>B_chorus	*>B_chorus	*>B_chorus	*>B_chorus	*>B_chorus
1I	E:maj	60.723	newline	voice	1E 1g# 1b
=34	=34	=34	=34	=34	=34
1vi	C#:min	62.541	.	voice	1C# 1e 1g#
=35	=35	=35	=35	=35	=35
1IV	A:maj	64.358	.	voice	1A 1cc# 1ee
=36	=36	=36	=36	=36	=36
1V	B:maj	66.176	.	voice	1B 1dd# 1ff#
=37	=37	=37	=37	=37	=37
1I	E:maj	67.994	newline	voice	1E 1g# 1b
=38	=38	=38	=38	=38	=38
1vi	C#:min	69.811	.	voice	1C# 1e 1g#
=39	=39	=39	=39	=39	=39
1IV	A:maj	71.628	.	voice	1A 1cc# 1ee
=40	=40	=40	=40	=40	=40
1V	B:maj	73.444	.	voice	1B 1dd# 1ff#
=41	=41	=41	=41	=41	=41
1I	E:maj	75.261	newline	drums	1E 1g# 1b
=42	=42	=42	=42	=42	=42
1r	N	77.087	.	drums	1r
=43	=43	=43	=43	=43	=43
*>C_verse	*>C_verse	*>C_verse	*>C_verse	*>C_verse	*>C_verse
1I	E:maj	78.913	newline	voice	1E 1g# 1b
=44	=44	=44	=44	=44	=44
1vi	C#:min	80.786	.	voice	1C# 1e 1g#
=45	=45	=45	=45	=45	=45
1IV	A:maj	82.66	.	voice	1A 1cc# 1ee
=46	=46	=46	=46	=46	=46
1V	B:maj	84.533	.	voice	1B 1dd# 1ff#
=47	=47	=47	=47	=47	=47
1I	E:maj	86.406	newline	voice	1E 1g# 1b
=48	=48	=48	=48	=48	=48
1vi	C#:min	88.268	.	voice	1C# 1e 1g#
=49	=49	=49	=49	=49	=49
1IV	A:maj	90.13	.	voice	1A 1cc# 1ee
=50	=50	=50	=50	=50	=50
1V	B:maj	91.992	.	voice	1B 1dd# 1ff#
=51	=51	=51	=51	=51	=51
1I	E:maj	93.854	newline	voice	1E 1g# 1b
=52	=52	=52	=52	=52	=52
1vi	C#:min	95.684	.	voice	1C# 1e 1g#
=53	=53	=53	=53	=53	=53
1IV	A:maj	97.514	.	voice	1A 1cc# 1ee
=54	=54	=54	=54	=54	=54
1V	B:maj	99.344	.	voice	1B 1dd# 1ff#
=55	=55	=55	=55	=55	=55
1I	E:maj	101.174	newline	voice	1E 1g# 1b
=56	=56	=56	=56	=56	=56
1vi	C#:min	102.997	.	voice	1C# 1e 1g#
=57	=57	=57	=57	=57	=57
1IV	A:maj	104.82	.	voice	1A 1cc# 1ee
=58	=58	=58	=58	=58	=58
1V	B:maj	106.643	.	voice	1B 1dd# 1ff#
=59	=59	=59	=59	=59	=59
1I	E:maj	108.466	newline	voice	1E 1g# 1b
=60	=60	=60	=60	=60	=60
1vi	C#:min	110.31	.	voice	1C# 1e 1g#
=61	=61	=61	=61	=61	=61
1IV	A:maj	112.153	.	voice	1A 1cc# 1ee
=62	=62	=62	=62	=62	=62
1V	B:maj	113.996	.	voice	1B 1dd# 1ff#
=63	=63	=63	=63	=63	=63
1I	E:maj	115.839	newline	drums	1E 1g# 1b
=64	=64	=64	=64	=64	=64
1r	N	117.645	.	drums	1r
=65	=65	=65	=65	=65	=65
*>B_chorus	*>B_chorus	*>B_chorus	*>B_chorus	*>B_chorus	*>B_chorus
1I	E:maj	119.45	newline	voice	1E 1g# 1b
=66	=66	=66	=66	=66	=66
1vi	C#:min	121.269	.	voice	1C# 1e 1g#
=67	=67	=67	=67	=67	=67
1IV	A:maj	123.089	.	voice	1A 1cc# 1ee
=68	=68	=68	=68	=68	=68
1V	B:maj	124.908	.	voice	1B 1dd# 1ff#
=69	=69	=69	=69	=69	=69
1I	E:maj	126.727	newline	voice	1E 1g# 1b
=70	=70	=70	=70	=70	=70
1vi	C#:min	128.542	.	voice	1C# 1e 1g#
=71	=71	=71	=71	=71	=71
1IV	A:maj	130.357	.	voice	1A 1cc# 1ee
=72	=72	=72	=72	=72	=72
1V	B:maj	132.172	.	voice	1B 1dd# 1ff#
=73	=73	=73	=73	=73	=73
1I	E:maj	133.987	newline	drums	1E 1g# 1b
=74	=74	=74	=74	=74	=74
1r	N	135.827	.	drums	1r
=75	=75	=75	=75	=75	=75
*>C2_outro	*>C2_outro	*>C2_outro	*>C2_outro	*>C2_outro	*>C2_outro
1I	E:maj	137.666	newline	organ	1E 1g# 1b
=76	=76	=76	=76	=76	=76
1vi	C#:min	139.496	.	organ	1C# 1e 1g#
=77	=77	=77	=77	=77	=77
1IV	A:maj	141.327	.	organ	1A 1cc# 1ee
=78	=78	=78	=78	=78	=78
1V	B:maj	143.158	.	organ	1B 1dd# 1ff#
=79	=79	=79	=79	=79	=79
*>_fadeout	*>_fadeout	*>_fadeout	*>_fadeout	*>_fadeout	*>_fadeout
1I	E:maj	144.989	newline	organ	1E 1g# 1b
=80	=80	=80	=80	=80	=80
1vi	C#:min	146.787	.	organ	1C# 1e 1g#
=81	=81	=81	=81	=81	=81
1IV	A:maj	148.586	.	organ	1A 1cc# 1ee
=82	=82	=82	=82	=82	=82
1V	B:maj	150.385	.	organ	1B 1dd# 1ff#
1r;	N	152.184	.	r	1r;
1r;	N	156.082	.	r	1r;
*-	*-	*-	*-	*-	*-
!!!OTL: Last Kiss
!!!COC: Wednesday
!!!BillboardChartDate: 1974/03/02, 1974/02/09
!!!BillboardPeak: 34, 34
!!!BillboardWeeksOnChart: 18, 18
!!!SampleTargetRank: 35, 42
!!!SampleActualRank: 34, 43
!!!SampleID#: 263, 362
!!!RDF**harmony: **recip + pitch class of root + harmonic quality
!!!RDF**harte: Chris Harte's syntax, used by MIREX
!!!RDF**phrase: newline = linebreak in original McGill transcription
!!!RDF**timestamp: McGill audio timestamp in seconds
!!!RDF**leadinstrument: original McGill primary instrumentation annotation
!!!RDT: 2017/01/12/
!!!ENC: Nathaniel Condit-Schultz
!!!EST: Awating manual error checking and editing.
